picto/escalator-up-right-framed.svg

<svg class="color-immutable" width="30" height="30" viewBox="0 0 30 30" fill="none" xmlns="http://www.w3.org/2000/svg"><path d="M29.9999 0H0V29.9999H29.9999V0Z" fill="#2D327D"/><path d="M25.4999 2.99999C26.3249 2.99999 26.9999 3.67499 26.9999 4.49999V25.4999C26.9999 26.3249 26.3249 26.9999 25.4999 26.9999H4.49999C3.67499 26.9999 2.99999 26.3249 2.99999 25.4999V4.49999C2.99999 3.67499 3.67499 2.99999 4.49999 2.99999H25.4999ZM25.4999 2.62499H4.49999C3.46612 2.62499 2.62499 3.46612 2.62499 4.49999V25.4999C2.62499 26.5338 3.46612 27.3749 4.49999 27.3749H25.4999C26.5338 27.3749 27.3749 26.5338 27.3749 25.4999V4.49999C27.3749 3.46612 26.5338 2.62499 25.4999 2.62499Z" fill="white"/><path d="M11.6242 17.787V15.2967C11.6242 14.6548 12.145 14.1341 12.7867 14.1341C12.9619 14.1341 13.1349 14.1738 13.2926 14.25L15.4355 15.2857L14.3026 16.0293L12.8508 15.3276L12.7039 15.6314L13.9735 16.2451L11.6242 17.787Z" fill="white"/><path d="M15.749 15.0801V12.5896C15.749 11.9479 16.2699 11.4272 16.9116 11.4272C17.0868 11.4272 17.2597 11.4669 17.4174 11.5431L19.5604 12.5787L18.4274 13.3224L16.9755 12.6206L16.8288 12.9245L18.0985 13.5383L15.749 15.0801Z" fill="white"/><path d="M8.62408 23.9999C7.17508 23.9999 5.99901 22.8239 5.99901 21.3749C5.99901 19.9259 7.17508 18.7499 8.62408 18.7499H11.1876C11.407 18.7499 11.6216 18.6859 11.8049 18.5654L23.9992 10.563V16.1249L11.9991 23.9999H8.62408Z" fill="white"/><path d="M19.874 12.3731V9.88265C19.874 9.24095 20.3948 8.72015 21.0366 8.72015C21.2117 8.72015 21.3846 8.75968 21.5423 8.83603L23.6854 9.87178L22.5524 10.6155L21.1005 9.9137L20.9537 10.2175L22.2234 10.8312L19.874 12.3731Z" fill="white"/><path d="M20.0576 7.48836C20.0576 6.95016 20.4944 6.51336 21.0326 6.51336C21.5708 6.51336 22.0076 6.95016 22.0076 7.48836C22.0076 8.02655 21.5708 8.46335 21.0326 8.46335C20.4944 8.46335 20.0576 8.02655 20.0576 7.48836Z" fill="white"/><path d="M15.9328 10.1583C15.9328 9.62008 16.3696 9.18328 16.9078 9.18328C17.446 9.18328 17.8828 9.62008 17.8828 10.1583C17.8828 10.6965 17.446 11.1333 16.9078 11.1333C16.3697 11.1333 15.9328 10.6965 15.9328 10.1583Z" fill="white"/><path d="M11.8083 12.8281C11.8083 12.2901 12.2451 11.8531 12.7833 11.8531C13.3215 11.8531 13.7583 12.2901 13.7583 12.8281C13.7583 13.3663 13.3215 13.8031 12.7833 13.8031C12.2451 13.8031 11.8083 13.3663 11.8083 12.8281Z" fill="white"/></svg>

<svg class="color-immutable" width="30" height="30" viewBox="0 0 30 30" fill="none" xmlns="http://www.w3.org/2000/svg"><path d="M30 0H0v30h30V0Z" fill="#2D327D"/><path d="M25.5 3c.825 0 1.5.675 1.5 1.5v21c0 .825-.675 1.5-1.5 1.5h-21c-.825 0-1.5-.675-1.5-1.5v-21C3 3.675 3.675 3 4.5 3h21Zm0-.375h-21A1.877 1.877 0 0 0 2.625 4.5v21c0 1.034.841 1.875 1.875 1.875h21a1.877 1.877 0 0 0 1.875-1.875v-21A1.877 1.877 0 0 0 25.5 2.625Z" fill="#fff"/><path d="M11.624 17.787v-2.49a1.163 1.163 0 0 1 1.669-1.047l2.143 1.036-1.133.743-1.452-.701-.147.303 1.27.614-2.35 1.542ZM15.749 15.08v-2.49a1.163 1.163 0 0 1 1.668-1.047l2.143 1.036-1.133.743-1.451-.701-.147.303 1.27.614-2.35 1.542Z" fill="#fff"/><path d="M8.624 24a2.626 2.626 0 0 1 0-5.25h2.564c.219 0 .434-.064.617-.185l12.194-8.002v5.562L12 24H8.624ZM19.874 12.373v-2.49a1.163 1.163 0 0 1 1.668-1.047l2.143 1.036-1.133.744-1.451-.702-.147.303 1.27.614-2.35 1.542ZM20.058 7.488a.975.975 0 1 1 1.95.001.975.975 0 0 1-1.95 0ZM15.933 10.158a.975.975 0 1 1 1.95.001.975.975 0 0 1-1.95 0ZM11.808 12.828a.975.975 0 1 1 1.951.001.975.975 0 0 1-1.95 0Z" fill="#fff"/></svg>
